src/actions/symbolic/am-pie-symbolic.svg

<svg width="16" height="16" version="1.1" viewBox="0 0 16 16" xmlns="http://www.w3.org/2000/svg">
 <path d="m9 0v0.091797 1.0234 5.8848h1 4.8848 1.0234 0.091797v-1a6 6 0 0 0-6-6h-1zm-2 1v0.035156a7.5 7.5 0 0 0-7 7.4648 7.5 7.5 0 0 0 7.5 7.5 7.5 7.5 0 0 0 7.4648-7h0.035156v-1h-7v-5.9785-1.002-0.019531h-1zm3 0a5 5 0 0 1 5 5h-5v-5zm-3 1.0391v6.9609h1 5.9609a6.5 6.5 0 0 1-6.4609 6 6.5 6.5 0 0 1-6.5-6.5 6.5 6.5 0 0 1 6-6.4609z" fill="#363636" stroke-linecap="round" stroke-linejoin="round" stroke-width=".9375"/>
</svg>

<svg xmlns="http://www.w3.org/2000/svg" width="16" height="16">
    <path fill="#050505" fill-opacity=".7" d="M9 0v7H16V6a6 6 0 0 0-6-6H9zM7 1v.035A7.5 7.5 0 0 0 0 8.5 7.5 7.5 0 0 0 7.5 16a7.5 7.5 0 0 0 7.465-7H15V8H8V.999H7zm3 0a5 5 0 0 1 5 5h-5V1zM7 2.04V9h6.96a6.5 6.5 0 0 1-6.46 6A6.5 6.5 0 0 1 1 8.5a6.5 6.5 0 0 1 6-6.46z"/>
</svg>
